X: 392
T:Je ne me puis tenir d'aimer
N: Derived from Jos2911-Je_ne_me_puis_tenir_daimer.krn
C: Josquin des Prez
%%abc-version 2.0
%%abcx-abcm2ps-target-version 5.9.1 (29 Sep 2008)
%%abc-creator hum2abc beta
%%abcx-conversion-date 2019/02/12 16:15:55
%%abc-edited-by Jesse Rodin
%%abc-edited-by Will Watson 13/12/2011
%%abcx-initial-encoding-date 2011/12/13/
%%humdrum-veritas 3262401562
%%humdrum-veritas-data 474995364
%%linebreak <none>
%%barnumbers 0
L: 1/4
M: 2/1
Q: 1/2=120
V: 1 clef=treble
V: 2 clef=treble-8
V: 3 clef=treble-8
V: 4 clef=bass
V: 5 clef=bass
K: C
[V:1] z8 | 
[V:2] d8 | 
[V:3] z8 | 
[V:4] z8 | 
[V:5] z8 | 
[V:1] A8 | 
[V:2] f4f4 | 
[V:3] z8 | 
[V:4] D,8 | 
[V:5] z8 | 
[V:1] c4c4 | 
[V:2] e4c4 | 
[V:3] z8 | 
[V:4] A,4A,4 | 
[V:5] z8 | 
[V:1] B4G4 | 
[V:2] d4e4 | 
[V:3] z8 | 
[V:4] G,4E,4 | 
[V:5] z8 | 
[V:1] A4B4 | 
[V:2] A2d2d2d2 | 
[V:3] z8 | 
[V:4] F,4G,4 | 
[V:5] z8 | 
[V:1] E2A2A2A2 | 
[V:2] c2A2cBcd | 
[V:3] z8 | 
[V:4] A,2F,2F,2F,2 | 
[V:5] z8 | 
[V:1] G2F2E4 | 
[V:2] e2d4^c2 | 
[V:3] z8 | 
[V:4] C2D2A,4 | 
[V:5] z8 | 
[V:1] D4z2A2 | 
[V:2] d4f4 | 
[V:3] z8 | 
[V:4] D,4D4 | 
[V:5] D,8 | 
[V:1] A4A4 | 
[V:2] f4f4 | 
[V:3] z8 | 
[V:4] C4A,4 | 
[V:5] F,4F,4 | 
[V:1] B4c4 | 
[V:2] g6g2 | 
[V:3] z8 | 
[V:4] E6E2 | 
[V:5] E,4C,4 | 
[V:1] B2A4^G2 | 
[V:2] f4e4 | 
[V:3] z8 | 
[V:4] D4B,4 | 
[V:5] D,4E,4 | 
[V:1] A8- | 
[V:2] c8 | 
[V:3] A8 | 
[V:4] A,4z4 | 
[V:5] A,,8 | 
[V:1] A8 | 
[V:2] e4e2c2 | 
[V:3] c4c4 | 
[V:4] A,4A,2A,2 | 
[V:5] z8 | 
[V:1] z8 | 
[V:2] d2cBc2B2- | 
[V:3] B4G4 | 
[V:4] G,3F,E,2C,2 | 
[V:5] z2E,2E,2E,2 | 
[V:1] d4d2d2 | 
[V:2] B2A4^G2 | 
[V:3] A4B4 | 
[V:4] F,2E,2D,4 | 
[V:5] D,2C,2B,,4 | 
[V:1] c3BA2G2 | 
[V:2] A3Bcde2- | 
[V:3] E8 | 
[V:4] z8 | 
[V:5] A,,8 | 
[V:1] F2EDE2A2 | 
[V:2] edd4^c2 | 
[V:3] A4A2A2 | 
[V:4] z8 | 
[V:5] A,,4A,,2A,,2 | 
[V:1] A3GF2E2- | 
[V:2] d4z4 | 
[V:3] F3ED2E2 | 
[V:4] A,4A,2A,2 | 
[V:5] D,6C,2 | 
[V:1] E2D4^C2 | 
[V:2] z4e4 | 
[V:3] F2G2E4 | 
[V:4] _B,2B,2A,4 | 
[V:5] _B,,2G,,2A,,4 | 
[V:1] D4A4 | 
[V:2] f4f4 | 
[V:3] D8 | 
[V:4] A,4z2D,2 | 
[V:5] D,8 | 
[V:1] c4c4 | 
[V:2] e4c4 | 
[V:3] z8 | 
[V:4] A,4A,4 | 
[V:5] z8 | 
[V:1] B6A2 | 
[V:2] d2GABcd2- | 
[V:3] z8 | 
[V:4] G,6F,2 | 
[V:5] z8 | 
[V:1] G4F4 | 
[V:2] d2c4B2 | 
[V:3] z8 | 
[V:4] E,4D,4 | 
[V:5] z8 | 
[V:1] E8 | 
[V:2] c8 | 
[V:3] z8 | 
[V:4] C,8 | 
[V:5] A,,8 | 
[V:1] z2A2A2A2 | 
[V:2] A4A2A2 | 
[V:3] z8 | 
[V:4] z2C2C2D2 | 
[V:5] F,4F,4 | 
[V:1] G6F2 | 
[V:2] B3AG2A2 | 
[V:3] z8 | 
[V:4] E4E,2F,2 | 
[V:5] E,6D,2 | 
[V:1] E4D4 | 
[V:2] E2A4^G2 | 
[V:3] z8 | 
[V:4] G,2C,2D,4 | 
[V:5] C,2A,,2B,,4 | 
[V:1] C8 | 
[V:2] A4z4 | 
[V:3] A8 | 
[V:4] E,8 | 
[V:5] A,,8 | 
[V:1] z8 | 
[V:2] z4e4 | 
[V:3] c4c4 | 
[V:4] A,4A,2A,2 | 
[V:5] z2A,,2A,,2A,,2 | 
[V:1] z8 | 
[V:2] e2e2d2f2 | 
[V:3] B6A2 | 
[V:4] G,4z2D2 | 
[V:5] E,3F,G,2D,2 | 
[V:1] z4z2A2 | 
[V:2] e4d4 | 
[V:3] G4F4 | 
[V:4] B,2C2A,4 | 
[V:5] E,2C,2D,4 | 
[V:1] A2A2c2BA | 
[V:2] c8 | 
[V:3] E4z4 | 
[V:4] z2A,2A,2A,2 | 
[V:5] A,,8 | 
[V:1] G2c2B2G2 | 
[V:2] z4z2e2 | 
[V:3] e4e2e2 | 
[V:4] C3B,/A,/G,2E,2 | 
[V:5] z8 | 
[V:1] A3Bc2B2- | 
[V:2] e2e2c2d2 | 
[V:3] c3BA2B2 | 
[V:4] A,6G,2 | 
[V:5] z8 | 
[V:1] B2A4^G2 | 
[V:2] f4e4 | 
[V:3] c2d2B4 | 
[V:4] F,2D,2E,4- | 
[V:5] z8 | 
[V:1] A8 | 
[V:2] c4c2c2 | 
[V:3] A2A2A2A2 | 
[V:4] E,4z2A,2 | 
[V:5] A,,4A,,2A,,2 | 
[V:1] z8 | 
[V:2] d3ef2e2- | 
[V:3] F3ED2E2 | 
[V:4] A,2A,2F,2G,2 | 
[V:5] D,6C,2 | 
[V:1] z4E4 | 
[V:2] e2d4^c2 | 
[V:3] F2G2E4 | 
[V:4] _B,4A,4 | 
[V:5] _B,,2G,,2A,,4 | 
[V:1] F6F2 | 
[V:2] d8 | 
[V:3] D8 | 
[V:4] z2A,2A,2F,2 | 
[V:5] z2D,2D,2D,2 | 
[V:1] E2C2D4 | 
[V:2] z8 | 
[V:3] z4G4 | 
[V:4] G,2A,2D,4 | 
[V:5] C,2A,,2B,,4 | 
[V:1] C2c2c2c2 | 
[V:2] e4e2c2 | 
[V:3] A6A2 | 
[V:4] E,8 | 
[V:5] A,,8 | 
[V:1] B2G2A4 | 
[V:2] d2e2A4 | 
[V:3] G2E2F4 | 
[V:4] z8 | 
[V:5] z8 | 
[V:1] G8 | 
[V:2] B2e2e2e2 | 
[V:3] E8 | 
[V:4] z2C2C2C2 | 
[V:5] z2C,2C,2C,2 | 
[V:1] z8 | 
[V:2] d2B2c4 | 
[V:3] z8 | 
[V:4] B,2G,2A,4 | 
[V:5] D,2E,2A,,4 | 
[V:1] z4B4 | 
[V:2] B8 | 
[V:3] z4G4 | 
[V:4] G,8 | 
[V:5] E,8 | 
[V:1] c6c2 | 
[V:2] z2e2e2c2 | 
[V:3] A6A2 | 
[V:4] z2C2C2A,2 | 
[V:5] z8 | 
[V:1] B2G2A4 | 
[V:2] d2e2A4 | 
[V:3] G2E2F4 | 
[V:4] B,2B,2D4 | 
[V:5] z4D,4 | 
[V:1] G8 | 
[V:2] B2e2g4- | 
[V:3] E8 | 
[V:4] E8 | 
[V:5] G,6F,2 | 
[V:1] z8 | 
[V:2] g2f2e2d2 | 
[V:3] z8 | 
[V:4] z8 | 
[V:5] E,2D,2C,2B,,2 | 
[V:1] z8 | 
[V:2] c2BAB4 | 
[V:3] A4e4- | 
[V:4] z4E,4 | 
[V:5] A,,2A,4^G,2 | 
[V:1] E4A4- | 
[V:2] A8 | 
[V:3] e2d2c2B2 | 
[V:4] A,6G,2 | 
[V:5] A,8 | 
[V:1] A2G2F2E2 | 
[V:2] z8 | 
[V:3] A6c2 | 
[V:4] F,2E,2D,4 | 
[V:5] z8 | 
[V:1] D2C2B,4 | 
[V:2] z2A2e4- | 
[V:3] B2A4^G2 | 
[V:4] G,2A,2E,4 | 
[V:5] z4E,4 | 
[V:1] A,4z4 | 
[V:2] e2d2c2B2 | 
[V:3] A2D2A4- | 
[V:4] z8 | 
[V:5] A,6G,2 | 
[V:1] z4A4 | 
[V:2] A2B4A2- | 
[V:3] A2G2F2E2 | 
[V:4] z8 | 
[V:5] F,2E,2D,2C,2 | 
[V:1] d6c2 | 
[V:2] A2^G2A4 | 
[V:3] D4E4 | 
[V:4] z4z2A,2 | 
[V:5] B,,4A,,4 | 
[V:1] B2A2G2F2- | 
[V:2] e4e2c2 | 
[V:3] z2c2B2A2 | 
[V:4] G,2A,2E,2F,2 | 
[V:5] z8 | 
[V:1] FEA4^G2 | 
[V:2] f4e4 | 
[V:3] d4B4 | 
[V:4] D,4E,4 | 
[V:5] z4E,4 | 
[V:1] A2F2A2A2 | 
[V:2] c2c2c2A2 | 
[V:3] A8 | 
[V:4] z2A,2A,2F,2 | 
[V:5] F,6F,2 | 
[V:1] G2E2F4 | 
[V:2] B2c2A3B | 
[V:3] z8 | 
[V:4] G,2A,2F,3G, | 
[V:5] E,2C,2D,4 | 
[V:1] E2A2c2c2 | 
[V:2] c2e2e2c2 | 
[V:3] A4A2A2 | 
[V:4] A,2C2C2A,2 | 
[V:5] A,,8 | 
[V:1] B2G2A4 | 
[V:2] d2e2c3d | 
[V:3] G2E2F4 | 
[V:4] B,2B,2A,3B, | 
[V:5] z8 | 
[V:1] G2E2G2G2 | 
[V:2] e2c2B2G2 | 
[V:3] E4z4 | 
[V:4] C2G,2G,2E,2 | 
[V:5] E,4E,2E,2 | 
[V:1] F2D2E4 | 
[V:2] A2B2G3A | 
[V:3] z8 | 
[V:4] F,2G,2E,2G,2- | 
[V:5] D,2B,,2C,4 | 
[V:1] D4D4 | 
[V:2] B8 | 
[V:3] z4G4 | 
[V:4] G,2F,E,D,4 | 
[V:5] G,,8 | 
[V:1] G6F2 | 
[V:2] z8 | 
[V:3] B6A2 | 
[V:4] D4D2C2 | 
[V:5] G,,4G,,2A,,2 | 
[V:1] E2D4^C2 | 
[V:2] z4e4 | 
[V:3] G2F2E4 | 
[V:4] C2A,2A,4 | 
[V:5] C,2D,2A,,4 | 
[V:1] D4z2G2 | 
[V:2] f6e2 | 
[V:3] D2A2d2c2 | 
[V:4] z2D,2D,2E,2 | 
[V:5] z8 | 
[V:1] G2F2E2E2 | 
[V:2] d2c2B4 | 
[V:3] B2A4G2 | 
[V:4] G,2A,2E,4 | 
[V:5] z4E,4 | 
[V:1] D4z2G2 | 
[V:2] A4z4 | 
[V:3] A3BcAB2- | 
[V:4] z2A,2A,2G,2 | 
[V:5] F,6E,2 | 
[V:1] A4B4 | 
[V:2] d4d4 | 
[V:3] BAA4^G2 | 
[V:4] F,2E,2D,4 | 
[V:5] D,2C,2B,,4 | 
[V:1] c6BA | 
[V:2] c4e4- | 
[V:3] A2A2c2c2 | 
[V:4] E,4E,4 | 
[V:5] A,,2A,,2A,,2A,,2 | 
[V:1] G2A4^G2 | 
[V:2] e2d2e4 | 
[V:3] B2A2B4 | 
[V:4] G,2F,2G,2G,2 | 
[V:5] E,2F,2E,4 | 
[V:1] A8- | 
[V:2] c4z2c2 | 
[V:3] A8- | 
[V:4] E,4z2E,2 | 
[V:5] A,,4z2A,,2 | 
[V:1] A8- | 
[V:2] d2e2d2d2 | 
[V:3] A8- | 
[V:4] F,2E,2F,2F,2 | 
[V:5] D,2C,2D,2D,2 | 
[V:1] A8- | 
[V:2] c4z2c2 | 
[V:3] A8- | 
[V:4] E,4z2E,2 | 
[V:5] A,,4z2A,,2 | 
[V:1] A8- | 
[V:2] d2c2d2d2 | 
[V:3] A8- | 
[V:4] F,2E,2F,2F,2 | 
[V:5] D,2A,,2D,2D,2 | 
[V:1] A8 |]  
[V:2] c8 |]  
[V:3] A8 |]  
[V:4] E,8 |]  
[V:5] A,,8 |]  



